X: 2113
T: The Mason's Apron
B: nick
B: steve tunes
M:4/4
Q: 1/4=100
K:Amajor
V:1 
|:e2|aAA2 ABAF|EFAc dcBA|dBB2 BcBA|Bcde fefg|
 aAA2 ABAF|EFAc dcBA|dcde fefa|A2 cB A2:|
 |:ed|cAeA fAeA|cAeA fedc|dBfB aBfB|defg afed|
 cAeA fAeA|EFAc dcBA|d2dc defa|A2 cB A2:|
 |:ed|ceee feee|ceee fedc|dfff afff|dfff agfe|
 ceee feee|EFAc dcBA|dcde fefa|A2 cB A2:|
 |:e2|aeee aeee|aege feee|beee beee|beae gefg|
 aeee aeee|aege feee|dcde fefa|A2 cB A2:|
 ed|c2Ac eAce|AceA cecA|d2 Ad fAdf|AdfA dfed|
 c2Ac eAce|AceA cecA|d2dc defa|A2 cB A2:|
% abcbook-tune_id 634561dc68a45327c8cf7952


% abcbook-boost 0
% abcbook-tablature 
% abcbook-transpose 
% abcbook-lastupdated 1666007024936
% abcbook-soundfonts 
% abcbook-repeats 3


